ix/card-tick_broken.svg

<svg viewBox="0 0 24 24" fill="none" xmlns="http://www.w3.org/2000/svg" height="1em" width="1em">
  <path d="M6 10H22" stroke="#292D32" stroke-width="1.5" stroke-miterlimit="10" stroke-linecap="round" stroke-linejoin="round"/>
  <path d="M11.5502 20.5H6.44025C2.89025 20.5 1.99023 19.62 1.99023 16.11V7.89001C1.99023 4.71001 2.73026 3.69001 5.52026 3.53001C5.80026 3.52001 6.11025 3.51001 6.44025 3.51001H17.5502C21.1002 3.51001 22.0002 4.39001 22.0002 7.90001V12.31" stroke="#292D32" stroke-width="1.5" stroke-linecap="round" stroke-linejoin="round"/>
  <path d="M6 16H10" stroke="#292D32" stroke-width="1.5" stroke-miterlimit="10" stroke-linecap="round" stroke-linejoin="round"/>
  <path d="M22 18C22 18.75 21.79 19.46 21.42 20.06C20.73 21.22 19.46 22 18 22C16.54 22 15.27 21.22 14.58 20.06C14.21 19.46 14 18.75 14 18C14 15.79 15.79 14 18 14C20.21 14 22 15.79 22 18Z" stroke="#292D32" stroke-width="1.5" stroke-miterlimit="10" stroke-linecap="round" stroke-linejoin="round"/>
  <path d="M16.4395 18L17.4294 18.99L19.5594 17.02" stroke="#292D32" stroke-width="1.5" stroke-linecap="round" stroke-linejoin="round"/>
</svg>

<svg viewBox="0 0 24 24" fill="none" xmlns="http://www.w3.org/2000/svg" height="1em" width="1em">
  <path d="M6 10h16" stroke="#292D32" stroke-width="1.5" stroke-miterlimit="10" stroke-linecap="round" stroke-linejoin="round"/>
  <path d="M11.55 20.5H6.44c-3.55 0-4.45-.88-4.45-4.39V7.89c0-3.18.74-4.2 3.53-4.36.28-.01.59-.02.92-.02h11.11c3.55 0 4.45.88 4.45 4.39v4.41" stroke="#292D32" stroke-width="1.5" stroke-linecap="round" stroke-linejoin="round"/>
  <path d="M6 16h4m12 2c0 .75-.21 1.46-.58 2.06A3.97 3.97 0 0 1 18 22a3.97 3.97 0 0 1-3.42-1.94A3.92 3.92 0 0 1 14 18c0-2.21 1.79-4 4-4s4 1.79 4 4Z" stroke="#292D32" stroke-width="1.5" stroke-miterlimit="10" stroke-linecap="round" stroke-linejoin="round"/>
  <path d="m16.44 18 .99.99 2.13-1.97" stroke="#292D32" stroke-width="1.5" stroke-linecap="round" stroke-linejoin="round"/>
</svg>
